Solution/ChromeWorker/html/scenario/inspector/new/src/assets/icons/resources.svg

<svg xmlns="http://www.w3.org/2000/svg" width="16" height="16" fill="none" viewBox="0 0 16 16">
  <path fill="#606060" d="M15.489 2H.5v12.0001h14.989V2ZM14.5 13.0021h-13V5.00007h13v8.00203Z" />
  <path fill="#606060" d="M9.5 7.0001h-1l-2 4h1l2-4Zm-3 0h-1l-2 4h1l2-4Zm6 0h-1l-2 4h1l2-4Z" />
</svg>

<svg xmlns="http://www.w3.org/2000/svg" width="16" height="16" fill="none" viewBox="0 0 16 16">
  <path fill="#606060" d="M15.489 2H0.5V14.0001H15.489V2ZM14.5 13.0021H1.5V5.00007H14.5V13.0021Z" />
  <path fill="#606060" d="M9.5 7.0001H8.5L6.5 11.0001H7.5L9.5 7.0001ZM6.5 7.0001H5.5L3.5 11.0001H4.5L6.5 7.0001ZM12.5 7.0001H11.5L9.5 11.0001H10.5L12.5 7.0001Z" />
</svg>
